!!!COM: Anon.
!!!OCL: Francis James Child
!!!OPR: The English and Scottish Popular Ballads
!!!OVM: Vol. 1
!!!ONB: Ballad No. 9, Tune No. 5
!!!ONM: No. 9
!!!PDT: 1882
!!!YEM: Public domain.
**kern
*M6/8
*G:
{8d
=1
8.d
16e
8f#
8g
8b
8dd
=2
8.cc
16b
8a
4.g}
!! Second phrase:
=3
{8g
8gg
8gg
8gg
8ff#
8ee
=4
8.dd
16c
8a
4dd}
!! Third phrase:
{8dd
=5
8.dd
16ee
8ff#
8gg
8ff#
8ee
=6
8dd
8gg
8b
(8b
8a;)}
!! Fourth phrase:
{8d
=7
8.d
16e
8f#
8g
8b
8dd
=8
(8.cc
16b)
8a
4g}
4r
====
*-
!!!OCY: Britain; England
!!!PPP: Boston
!!!ODT: <1882
!!!AFR: folk song
!!!AST: monophony
!!!AMT: compound duple
!!!SCA: Child Collection
!!!AIN: vox
!!!EEV: 1.0
!!!RDT: 1987 June
!!!YER: 1994 August 10
!!!VTS: 652652838
